Catalina-light/places/16/folder-open-symbolic.svg

<?xml version="1.0" encoding="UTF-8" standalone="no"?>
<!-- Created with Inkscape (http://www.inkscape.org/) -->

<svg
   xmlns:dc="http://purl.org/dc/elements/1.1/"
   xmlns:cc="http://creativecommons.org/ns#"
   xmlns:rdf="http://www.w3.org/1999/02/22-rdf-syntax-ns#"
   xmlns:svg="http://www.w3.org/2000/svg"
   xmlns="http://www.w3.org/2000/svg"
   xmlns:sodipodi="http://sodipodi.sourceforge.net/DTD/sodipodi-0.dtd"
   xmlns:inkscape="http://www.inkscape.org/namespaces/inkscape"
   id="svg7384"
   sodipodi:docname="folder-visiting-symbolic.svg"
   version="1.1"
   inkscape:version="0.91 r13725"
   height="36"
   width="36">
  <metadata
     id="metadata90">
    <rdf:RDF>
      <cc:Work
         rdf:about="">
        <dc:format>image/svg+xml</dc:format>
        <dc:type
           rdf:resource="http://purl.org/dc/dcmitype/StillImage" />
        <dc:title>Gnome Symbolic Icon Theme</dc:title>
      </cc:Work>
    </rdf:RDF>
  </metadata>
  <sodipodi:namedview
     inkscape:cy="9.8995036"
     pagecolor="#ffffff"
     borderopacity="1"
     showborder="true"
     inkscape:bbox-paths="false"
     guidetolerance="10"
     inkscape:window-width="1366"
     showguides="true"
     inkscape:object-nodes="true"
     inkscape:snap-bbox="true"
     inkscape:pageshadow="2"
     inkscape:guide-bbox="true"
     inkscape:snap-nodes="true"
     bordercolor="#666666"
     objecttolerance="10"
     id="namedview88"
     showgrid="false"
     inkscape:window-maximized="1"
     inkscape:window-x="0"
     inkscape:snap-global="true"
     inkscape:window-y="28"
     gridtolerance="10"
     inkscape:window-height="714"
     inkscape:snap-to-guides="true"
     inkscape:current-layer="layer13"
     inkscape:zoom="4"
     inkscape:cx="54.145534"
     inkscape:snap-grids="true"
     inkscape:pageopacity="1">
    <inkscape:grid
       spacingx="1px"
       spacingy="1px"
       id="grid4866"
       empspacing="2"
       enabled="true"
       type="xygrid"
       snapvisiblegridlinesonly="true"
       visible="true" />
  </sodipodi:namedview>
  <title
     id="title9167">Gnome Symbolic Icon Theme</title>
  <defs
     id="defs7386" />
  <g
     inkscape:label="status"
     transform="translate(-442,-156)"
     inkscape:groupmode="layer"
     id="layer9"
     style="display:inline" />
  <g
     inkscape:label="devices"
     transform="translate(-442,-156)"
     inkscape:groupmode="layer"
     id="layer10" />
  <g
     inkscape:label="apps"
     transform="translate(-442,-156)"
     inkscape:groupmode="layer"
     id="layer11" />
  <g
     inkscape:label="actions"
     transform="translate(-442,-156)"
     inkscape:groupmode="layer"
     id="layer12" />
  <g
     inkscape:label="places"
     transform="translate(-442,-156)"
     inkscape:groupmode="layer"
     id="layer13">
    <path
       style="opacity:0.75;fill:#000000;fill-opacity:1"
       d="M 2.1210938,1.9746094 C 0.94588218,1.9746094 0,2.9204914 0,4.0957031 l 0,3.0253907 0,4.0000002 0,0.748047 0,17.009765 C 0,30.054118 0.94588228,31 2.1210938,31 L 33.878906,31 C 35.054118,31 36,30.054118 36,28.878906 L 36,11.121094 36,7.1210938 C 36,5.9458823 35.054118,5 33.878906,5 L 14.341834,5 C 13.037165,4.9489542 12.712108,4.3526942 12.000497,3.4106539 11.288886,2.4686136 10.833147,1.9746094 9.8789062,1.9746094 Z m 1.1660156,2 5.4257812,0 c 1.3355064,0 1.7570784,1.0151208 2.2718294,1.5298718 C 11.499471,6.0192322 12.943135,7 13.75582,7 L 32.712891,7 C 33.425742,7 34,7.5742584 34,8.2871094 l 0,7.7792966 c -0.04097,-0.0023 -0.07952,-0.01172 -0.121094,-0.01172 l -31.7578122,0 c -0.041573,0 -0.080126,0.0094 -0.1210938,0.01172 L 2,5.2617188 C 2,4.5488678 2.5742584,3.9746094 3.2871094,3.9746094 Z m 0,14.0800776 29.4257816,0 C 33.425742,18.054687 34,18.628945 34,19.341796 l 0,8.371095 C 34,28.425742 33.425742,29 32.712891,29 L 3.2871094,29 C 2.5742584,29 2,28.425742 2,27.712891 l 0,-3.767579 0,-4.603516 c 0,-0.712851 0.5742584,-1.287109 1.2871094,-1.287109 z"
       id="rect4155"
       inkscape:connector-curvature="0"
       sodipodi:nodetypes="sscccsssscssczsssczssscsscssssssssscss"
       transform="translate(442,156)" />
    <path
       sodipodi:nodetypes="sssssssss"
       inkscape:connector-curvature="0"
       id="path4170"
       d="m 3.2871094,18.054687 29.4257816,0 C 33.425742,18.054687 34,18.628945 34,19.341796 l 0,8.371095 C 34,28.425742 33.425742,29 32.712891,29 L 3.2871094,29 C 2.5742584,29 2,28.425742 2,27.712891 l 0,-8.371095 c 0,-0.712851 0.5742584,-1.287109 1.2871094,-1.287109 z"
       style="opacity:0.2;fill:#000000;fill-opacity:0.90196078"
       transform="translate(442,156)" />
    <path
       style="opacity:0.3;fill:#000000;fill-opacity:1"
       d="M 2 27 L 2 27.712891 C 2 28.425742 2.5742584 29 3.2871094 29 L 32.712891 29 C 33.425742 29 34 28.425742 34 27.712891 L 34 27 L 2 27 z "
       transform="translate(442,156)"
       id="path4182" />
  </g>
  <g
     inkscape:label="mimetypes"
     transform="translate(-442,-156)"
     inkscape:groupmode="layer"
     id="layer14" />
  <g
     inkscape:label="emblems"
     transform="translate(-442,-156)"
     inkscape:groupmode="layer"
     id="layer15"
     style="display:inline" />
</svg>

<svg width="36" height="36" version="1.1" xmlns="http://www.w3.org/2000/svg">
<g transform="translate(-442,-156)">
<path transform="translate(442,156)" d="m2.1211 1.9746c-1.1752 0-2.1211 0.94588-2.1211 2.1211v3.0254 4 0.74805 17.01c0 1.1752 0.94588 2.1211 2.1211 2.1211h31.758c1.1752 0 2.1211-0.94588 2.1211-2.1211v-17.758-4c0-1.1752-0.94588-2.1211-2.1211-2.1211h-19.537c-1.3047-0.051046-1.6297-0.64731-2.3413-1.5893s-1.1674-1.436-2.1216-1.436zm1.166 2h5.4258c1.3355 0 1.7571 1.0151 2.2718 1.5299s1.9584 1.4955 2.7711 1.4955h18.957c0.71285 0 1.2871 0.57426 1.2871 1.2871v7.7793c-0.04097-0.0023-0.07952-0.01172-0.12109-0.01172h-31.758c-0.041573 0-0.080126 0.0094-0.12109 0.01172v-10.805c0-0.71285 0.57426-1.2871 1.2871-1.2871zm0 14.08h29.426c0.71285 0 1.2871 0.57426 1.2871 1.2871v8.3711c0 0.71285-0.57426 1.2871-1.2871 1.2871h-29.426c-0.71285 0-1.2871-0.57426-1.2871-1.2871v-3.7676-4.6035c0-0.71285 0.57426-1.2871 1.2871-1.2871z" opacity=".75"/>
<path transform="translate(442,156)" d="m3.2871 18.055h29.426c0.71285 0 1.2871 0.57426 1.2871 1.2871v8.3711c0 0.71285-0.57426 1.2871-1.2871 1.2871h-29.426c-0.71285 0-1.2871-0.57426-1.2871-1.2871v-8.3711c0-0.71285 0.57426-1.2871 1.2871-1.2871z" fill-opacity=".90196" opacity=".2"/>
<path transform="translate(442,156)" d="m2 27v0.71289c0 0.71285 0.57426 1.2871 1.2871 1.2871h29.426c0.71285 0 1.2871-0.57426 1.2871-1.2871v-0.71289h-32z" opacity=".3"/>
</g>
</svg>
